X: 460
T: Nao zhuangjia
%%abc-version 2.0
%%abcx-abcm2ps-target-version 5.9.1 (29 Sep 2008)
%%abc-creator hum2abc beta
%%abcx-conversion-date 2013/10/02 07:52:30
%%abc-edited-by Helmut Schaffrath
%%humdrum-veritas 2477850850
%%humdrum-veritas-data 715107619
%%continueall 1
%%barnumbers 0
L: 1/8
M: 2/4
K: F
A2A2 [I:setbarnb 1]| 
A f d f | 
A c A G | 
F E D C | 
F F F G | 
A2A c | 
d f d A | 
G4 |]  



